X: 226
T: Hundred Pipers
R:jig
M:6/8
L:1/8
K:Gmaj
|:"G"B2D DED|"C"E2G G2e|"G"d2B BAG|B2A "D"AGA|
"G"B2D DED|"C"E2G G2e|"G"d2B "D"ABA| "G"G3 G2A:|
"G"B2d dBd|"C"e2f gfe|"G"d2B BAG|B2A "D"AGA|
"G"B2d dBd|"C"e2f gfe|"G"d2B "D"ABA|"G"G3 G2A|
"G"B2d dBd|"C"e2f gfe|"G"d2B BAG|B2A "D"AGA|
"G"B2D DED|"C"E2G G2e|"G"d2B "D"ABA|"G" G3 G2A|]


